!!!OTL: Haohua xiyin mi lai cai
!!!ARE: Asia, China,ÿGuangdong, Danxian
!! II, 405
!!!SCT: C1516
!!!YEM: Copyright 1995, estate of Helmut Schaffrath.
**kern
*ICvox
*Ivox
*M2/4
*k[f#]
*G:
{8dd
16dd
16dd
8dd
8dd
=1
4ee
8dd
8b
=2
4ee
8dd
8b
=3
8a
16a
16b
8dd
8b
=4
2dd}
=5
{8dd
16dd
16dd
8dd
8dd
=6
4ee
8dd
8b
=7
8a
16a
16b
8dd
8b
=8
2dd}
=9
{4b
8dd
8a
=10
4b
8b
8a
=11
4g
8a
8g
=12
16e
16g
8a
8a
8g
=13
4.a}
{8b
=14
4b
8dd
8a
=15
4b
8b
8a
=16
4g
8a
8g
=17
16e
16g
8a
8a
8g
=18
2a}
==
!!!AGN: Xiaodiao, Diaosheng
!!!AMT: simple duple
!!!AIN: vox
!!!EED: Helmut Schaffrath
!!!EEV: 1.0
*-
